app/images/hide.svg

<?xml version="1.0" encoding="UTF-8"?>
<svg width="16px" height="12px" viewBox="0 0 16 12" version="1.1" xmlns="http://www.w3.org/2000/svg" xmlns:xlink="http://www.w3.org/1999/xlink">
    <!-- Generator: Sketch 50.2 (55047) - http://www.bohemiancoding.com/sketch -->
    <title>hide</title>
    <desc>Created with Sketch.</desc>
    <defs></defs>
    <g id="Extension-(mobile-form-factor)" stroke="none" stroke-width="1" fill="none" fill-rule="evenodd">
        <g id="hide" fill="#FFFFFF">
            <polygon id="Fill-1" points="12.7924541 0.685525644 2.5021101 11.2520394 3.21020258 11.978038 13.4995465 1.41152421"></polygon>
            <path d="M4.53087507,6.33167913 C4.53087507,4.36419221 6.08507807,2.76945986 8.00132835,2.76945986 C8.40338086,2.76945986 8.78243037,2.85366337 9.14147727,2.98202238 L10.0225923,2.07734807 C9.36950705,1.93153223 8.69641914,1.83808687 8.00132835,1.83808687 C4.64088944,1.83808687 1.68850383,3.6289518 0.000283333333,6.33167913 C0.757382218,7.54338819 1.77751546,8.55691095 2.96667077,9.32295752 L4.73890224,7.50334018 C4.61288579,7.1346931 4.53087507,6.74448171 4.53087507,6.33167913" id="Fill-2"></path>
            <path d="M13.0194751,3.34029805 L11.2513649,5.16094226 C11.3770883,5.52958934 11.4589083,5.91980074 11.4589083,6.33157644 C11.4589083,8.30009024 9.90831963,9.89482259 7.99652557,9.89482259 C7.59441023,9.89482259 7.21724,9.81061908 6.85803026,9.68123319 L5.97896421,10.5859075 C6.63152857,10.7317233 7.30305122,10.8261956 7.99652557,10.8261956 C11.348152,10.8261956 14.2936719,9.03430378 15.9789642,6.33157644 C15.223626,5.11986738 14.2048672,4.10634463 13.0194751,3.34029805" id="Fill-4"></path>
            <path d="M8.00102831,8.7499629 C9.30219826,8.7499629 10.3553358,7.66763972 10.3553358,6.33167913 C10.3553358,6.25774434 10.341334,6.18689017 10.3343331,6.11398225 L7.78900062,8.72839858 C7.86000989,8.73455982 7.92901891,8.7499629 8.00102831,8.7499629" id="Fill-7"></path>
            <path d="M8.00102831,3.9139088 C6.69985837,3.9139088 5.64672082,4.99623198 5.64672082,6.33116569 C5.64672082,6.40612736 5.66072264,6.47698153 5.66772356,6.54886258 L8.213056,3.93547311 C8.14204673,3.92931188 8.07303772,3.9139088 8.00102831,3.9139088" id="Fill-9"></path>
        </g>
    </g>
</svg>

<svg height="12" width="16" xmlns="http://www.w3.org/2000/svg">
    <g fill="#fff" fill-rule="evenodd">
        <path d="M12.792.686L2.502 11.252l.708.726L13.5 1.412zM4.53 6.332c0-1.968 1.555-3.563 3.471-3.563.402 0 .781.085 1.14.213l.882-.905A9.25 9.25 0 008 1.838c-3.36 0-6.312 1.791-8 4.494a9.649 9.649 0 002.966 2.991l1.772-1.82a3.606 3.606 0 01-.208-1.171M13.02 3.34L11.25 5.16c.126.37.208.76.208 1.172 0 1.968-1.55 3.563-3.462 3.563-.403 0-.78-.084-1.139-.214l-.879.905c.653.146 1.324.24 2.018.24 3.351 0 6.297-1.792 7.982-4.494a9.649 9.649 0 00-2.96-2.992"/>
        <path d="M8.001 8.75c1.301 0 2.354-1.082 2.354-2.418 0-.074-.014-.145-.02-.218L7.788 8.728c.071.007.14.022.212.022M8.001 3.914c-1.301 0-2.354 1.082-2.354 2.417 0 .075.014.146.02.218l2.546-2.614c-.071-.006-.14-.021-.212-.021"/>
    </g>
</svg>
